src/images/single-assets/BMX.svg

<svg width="32" height="32" viewBox="0 0 32 32" fill="none" xmlns="http://www.w3.org/2000/svg">
<g clip-path="url(#clip0_559_216969)">
<path d="M15.9999 31.9998C24.8364 31.9998 31.9998 24.8364 31.9998 15.9999C31.9998 7.16341 24.8364 0 15.9999 0C7.16341 0 0 7.16341 0 15.9999C0 24.8364 7.16341 31.9998 15.9999 31.9998Z" fill="#1A0FF4"/>
<path d="M22.8628 23.2166C22.313 23.1782 21.8678 22.9473 21.4498 22.6503C19.6245 21.3472 17.7277 20.1542 15.9573 18.7796C15.391 18.3398 15.3746 18.3508 14.9623 18.9392C14.0056 20.3026 13.1095 21.7047 12.0649 23.0021C11.746 23.398 11.4326 23.8048 11.0093 24.0962C10.4266 24.4921 9.76679 24.5031 9.29949 24.1403C8.83219 23.7775 8.68923 23.1452 8.92015 22.48C9.10153 21.9522 9.46994 21.5508 9.81085 21.1274C10.8554 19.8353 11.9 18.5378 12.9337 17.2348C13.3955 16.652 13.3846 16.6409 12.8292 16.1077C11.7076 15.019 10.5805 13.9415 9.46994 12.8419C9.01357 12.3855 8.5847 11.9018 8.32629 11.297C8.15583 10.8956 8.1449 10.4997 8.44721 10.1534C8.79359 9.75199 9.28292 9.75746 9.78319 10.2304C11.0696 11.4454 12.4937 12.49 13.8461 13.6226C15.0391 14.6177 15.0337 14.5958 16.0673 13.4742C16.7326 12.7485 17.4363 12.0612 18.129 11.3629C18.25 11.242 18.382 11.1375 18.5193 11.0386C19.0746 10.6427 19.41 10.6043 19.7014 10.9122C20.0643 11.2916 19.8939 11.682 19.6684 12.0284C18.9647 13.1059 18.2334 14.1726 17.5133 15.2392C16.969 16.0474 16.859 15.9758 17.7937 16.6192C19.3881 17.7134 21.0541 18.703 22.7035 19.7091C23.1983 20.0114 23.6986 20.3084 24.0285 20.8032C24.3749 21.3201 24.4683 21.8699 24.177 22.4417C23.902 22.964 23.4237 23.184 22.863 23.2169L22.8628 23.2166Z" fill="#F2F2F2"/>
<path d="M21.3434 8.68397C20.2108 9.17877 19.3147 9.57468 18.413 9.96495C18.0721 10.1134 17.7257 10.2618 17.3684 10.3663C16.7691 10.5422 16.3402 10.3718 16.1589 9.93745C15.9939 9.54155 16.1643 9.15674 16.6482 8.83786C16.7307 8.78287 16.8241 8.73334 16.9175 8.68944C18.5119 7.93622 20.0954 7.14458 21.7448 6.51228C21.9043 6.45182 22.0637 6.39136 22.2286 6.3473C23.5207 5.98435 24.2519 6.63868 23.9551 7.95279C23.6746 9.17877 23.2789 10.372 22.8005 11.5375C22.6575 11.8839 22.4761 12.2137 22.2011 12.4775C21.5909 13.0658 20.9806 12.9064 20.7606 12.0982C20.5847 11.455 20.6892 10.8172 20.8816 10.1904C21.0025 9.77263 21.1345 9.36016 21.3434 8.68397Z" fill="#F2F2F2"/>
</g>
<defs>
<clipPath id="clip0_559_216969">
<rect width="32" height="32" fill="white"/>
</clipPath>
</defs>
</svg>

<svg xmlns="http://www.w3.org/2000/svg" width="32" height="32" fill="none"><g clip-path="url(#a)"><path fill="#1A0FF4" d="M16 32c8.836 0 16-7.164 16-16S24.836 0 16 0 0 7.163 0 16s7.163 16 16 16"/><path fill="#F2F2F2" d="M22.863 23.217c-.55-.039-.995-.27-1.413-.567-1.825-1.303-3.722-2.496-5.493-3.87-.566-.44-.582-.43-.995.16-.956 1.363-1.852 2.765-2.897 4.062-.319.396-.632.803-1.056 1.094-.582.396-1.242.407-1.71.044s-.61-.995-.379-1.66c.182-.528.55-.93.89-1.353 1.045-1.292 2.09-2.59 3.124-3.892.462-.583.45-.594-.105-1.127-1.121-1.089-2.248-2.167-3.36-3.266-.455-.457-.884-.94-1.143-1.545-.17-.401-.181-.797.121-1.144.347-.401.836-.396 1.336.077 1.287 1.215 2.71 2.26 4.063 3.393 1.193.995 1.188.973 2.221-.149.666-.726 1.37-1.413 2.062-2.111.121-.121.253-.226.39-.324.556-.396.891-.435 1.182-.127.363.38.193.77-.033 1.116-.703 1.078-1.435 2.145-2.155 3.211-.544.808-.654.737.28 1.38 1.595 1.094 3.261 2.084 4.91 3.09.495.302.996.6 1.326 1.094.346.517.44 1.067.148 1.639-.275.522-.753.742-1.314.775"/><path fill="#F2F2F2" d="M21.343 8.684c-1.132.495-2.028.89-2.93 1.281-.34.148-.687.297-1.045.401-.599.176-1.028.006-1.21-.429-.164-.395.006-.78.49-1.1.083-.054.176-.104.27-.148 1.594-.753 3.177-1.544 4.827-2.177.16-.06.319-.12.484-.165 1.292-.363 2.023.292 1.726 1.606a23 23 0 0 1-1.154 3.584c-.143.347-.325.677-.6.94-.61.589-1.22.43-1.44-.379-.176-.643-.072-1.28.12-1.908.122-.417.253-.83.462-1.506"/></g><defs><clipPath id="a"><path fill="#fff" d="M0 0h32v32H0z"/></clipPath></defs></svg>
